Papirus/64x64/devices/input-tablet.svg

<svg xmlns="http://www.w3.org/2000/svg" width="64" height="64" version="1">
 <path style="opacity:0.2" d="m 4,50 0,2 c 0,1.662 1.338,3 3,3 l 50,0 c 1.662,0 3,-1.338 3,-3 l 0,-2 c 0,1.662 -1.338,3 -3,3 L 7,53 C 5.338,53 4,51.662 4,50 Z"/>
 <rect style="fill:#4f4f4f" width="44" height="56" x="-54" y="4" rx="3" ry="3" transform="matrix(0,-1,1,0,0,0)"/>
 <path style="opacity:0.1;fill:#ffffff" d="M 7 10 C 5.338 10 4 11.338 4 13 L 4 14 C 4 12.338 5.338 11 7 11 L 57 11 C 58.662 11 60 12.338 60 14 L 60 13 C 60 11.338 58.662 10 57 10 L 7 10 z"/>
 <path style="opacity:0.1;fill:#ffffff" d="m 7,10 c -1.662,0 -3,1.338 -3,3 l 0,38 c 0,1.662 1.338,3 3,3 l 7,0 0,-44 z"/>
 <path style="opacity:0.2;fill-rule:evenodd" d="M 63.958,45.848 A 16,16 0 0 1 48,61 16,16 0 0 1 32.042,46.152 16,16 0 0 0 32,47 16,16 0 0 0 48,63 16,16 0 0 0 64,47 16,16 0 0 0 63.95704,45.84766 Z"/>
 <circle style="fill:#1ea362;fill-rule:evenodd" cx="48" cy="46" r="16"/>
 <path style="fill:#ffffff" d="m 40,50.436 0,3.5638 3.5638,0 9.0008,-9.0008 -3.5638,-3.5638 z m 15.7172,-8.5782 c 0.37696,-0.37694 0.37696,-0.9709 0,-1.34786 l -2.2274,-2.2274 c -0.37696,-0.37696 -0.97092,-0.37696 -1.34786,0 l -1.86186,1.87328 3.5638,3.5638 z"/>
</svg>

<svg xmlns="http://www.w3.org/2000/svg" width="64" height="64" version="1">
 <rect width="56" height="44" x="4" y="11" rx="3" ry="3" style="opacity:0.2"/>
 <rect style="fill:#4f4f4f" width="56" height="44" x="4" y="10" rx="3" ry="3"/>
 <path style="fill:#ffffff;opacity:0.1" d="M 7 10 C 5.338 10 4 11.338 4 13 L 4 51 C 4 52.662 5.338 54 7 54 L 14 54 L 14 10 L 7 10 z"/>
 <circle cx="48" cy="47" r="16" style="opacity:0.2"/>
 <circle style="fill:#1ea362" cx="48" cy="46" r="16"/>
 <path style="fill:#ffffff;opacity:0.1" d="M 7 10 C 5.338 10 4 11.338 4 13 L 4 14 C 4 12.338 5.338 11 7 11 L 57 11 C 58.662 11 60 12.338 60 14 L 60 13 C 60 11.338 58.662 10 57 10 L 7 10 z"/>
 <path style="fill:#ffffff" d="M 40,50.436 V 54 H 43.564 L 52.565,44.999 49.001,41.435 Z M 55.717,41.858 C 56.094,41.481 56.094,40.887 55.717,40.51 L 53.49,38.283 C 53.113,37.906 52.519,37.906 52.142,38.283 L 50.28,40.156 53.844,43.72 Z"/>
</svg>
